**kern	**silbe	**kern	**silbe	**harmony	**phrase	**leadinstrument	**rhyme	**timestamp	**harte
*ICvox	*	*ICvox	*	*M4/4	*	*	*	*	*M4/4
*VRlead	*	*VRbacking*VRharmonize	*	*	*	*	*	*	*
*Hstimme	*	*Nstimme	*	*	*	*	*	*	*
*C:	*	*C:	*	*C:	*	*	*	*	*C:
*M6/4	*	*M6/4	*	*	*	*	*	*	*
*clefG2	*	*clefG2	*	*	*	*	*	*	*
r;	.	r;	.	1r;	.	r	.	0	N.C.
=1	=1	=1	=1	=1	=1	=1	=1	=1	=1
*>Letter>A	*>Letter>A	*>Letter>A	*>Letter>A	*>Letter>A	*>Letter>A	*>Letter>A	*>Letter>A	*>Letter>A	*>Letter>A
*>Label>Intro	*>Label>Intro	*>Label>Intro	*>Label>Intro	*>Label>Intro	*>Label>Intro	*>Label>Intro	*>Label>Intro	*>Label>Intro	*>Label>Intro
*	*	*	*	*M6/4	*M6/4	*M6/4	*	*M6/4	*M6/4
1.r	.	1.r	.	1.N	newline	drums	.	0.441	N.C.
=2	=2	=2	=2	=2	=2	=2	=2	=2	=2
*M4/4	*	*M4/4	*	*M4/4	*M4/4	*M4/4	*	*M4/4	*M4/4
1r	.	1r	.	1FM	newline	synth	.	3.418	F:maj
=3	=3	=3	=3	=3	=3	=3	=3	=3	=3
1r	.	1r	.	2Em	.	synth	.	5.515	E:min
.	.	.	.	2Am	.	synth	.	6.563	A:min
=4	=4	=4	=4	=4	=4	=4	=4	=4	=4
1r	.	1r	.	1FM	newline	synth	.	7.611	F:maj
=5	=5	=5	=5	=5	=5	=5	=5	=5	=5
1r	.	1r	.	2Em	.	synth	.	9.65	E:min
.	.	.	.	2Am	.	synth	.	10.67	A:min
=6	=6	=6	=6	=6	=6	=6	=6	=6	=6
1r	.	1r	.	1FM	newline	synth	.	11.69	F:maj
=7	=7	=7	=7	=7	=7	=7	=7	=7	=7
1r	.	1r	.	2Em	.	synth	.	13.702	E:min
.	.	.	.	2Am	.	synth	.	14.708	A:min
=8	=8	=8	=8	=8	=8	=8	=8	=8	=8
1r	.	1r	.	1FM	newline	synth	.	15.714	F:maj
=9	=9	=9	=9	=9	=9	=9	=9	=9	=9
1r	.	1r	.	2Em	.	synth	.	17.75	E:min
.	.	.	.	2Am	.	synth	.	18.768	A:min
=10	=10	=10	=10	=10	=10	=10	=10	=10	=10
1r	.	1r	.	1FM	newline	synth	.	19.786	F:maj
=11	=11	=11	=11	=11	=11	=11	=11	=11	=11
1r	.	1r	.	2Em	.	synth	.	21.83	E:min
.	.	.	.	2Am	.	synth	.	22.852	A:min
=12	=12	=12	=12	=12	=12	=12	=12	=12	=12
1r	.	1r	.	1FM	newline	synth	.	23.874	F:maj
=13	=13	=13	=13	=13	=13	=13	=13	=13	=13
1r	.	1r	.	2Em	.	synth	.	25.926	E:min
.	.	.	.	2Am	.	synth	.	26.951	A:min
=14	=14	=14	=14	=14	=14	=14	=14	=14	=14
*>Letter>B	*>Letter>B	*>Letter>B	*>Letter>B	*>Letter>B	*>Letter>B	*>Letter>B	*>Letter>B	*>Letter>B	*>Letter>B
*>Label>Intro	*>Label>Intro	*>Label>Intro	*>Label>Intro	*>Label>Intro	*>Label>Intro	*>Label>Intro	*>Label>Intro	*>Label>Intro	*>Label>Intro
1r	.	1r	.	1Dm	newline	synth	.	27.977	D:1(11)
=15	=15	=15	=15	=15	=15	=15	=15	=15	=15
1r	.	1r	.	1CM	.	synth	.	30.006	C:1(11)
=16	=16	=16	=16	=16	=16	=16	=16	=16	=16
1r	.	1r	.	1Dm	newline	synth	.	32.036	D:1(11)
=17	=17	=17	=17	=17	=17	=17	=17	=17	=17
1r	.	1r	.	1CM	.	synth	.	34.079	C:1(11)
=18	=18	=18	=18	=18	=18	=18	=18	=18	=18
*>Label>>Verse	*>Label>>Verse	*>Label>>Verse	*>Label>>Verse	*>Label>>Verse	*>Label>>Verse	*>Label>>Verse	*>Label>>Verse	*>Label>>Verse	*>Label>>Verse
8r	.	1r	.	1Dm	newline	voice	.	36.122	D:1(11)
8d	You	.	.	.	.	.	.	.	.
8d	al-	.	.	.	.	.	.	.	.
8d	-ways	.	.	.	.	.	.	.	.
8d	want-	.	.	.	.	.	.	.	.
8d	-ed	.	.	.	.	.	.	.	.
8e	a	.	.	.	.	.	.	.	.
8d	lov-	.	.	.	.	.	A	.	.
=19	=19	=19	=19	=19	=19	=19	=19	=19	=19
8c	-er	1r	.	1CM	.	voice	.	38.126	C:1(11)
8r	.	.	.	.	.	.	.	.	.
4r	.	.	.	.	.	.	.	.	.
2r	.	.	.	.	.	.	.	.	.
=20	=20	=20	=20	=20	=20	=20	=20	=20	=20
8r	.	1r	.	1Dm	newline	voice	.	40.13	D:1(11)
8d	I	.	.	.	.	.	.	.	.
8d	on-	.	.	.	.	.	.	.	.
8d	-ly	.	.	.	.	.	.	.	.
8d	want-	.	.	.	.	.	.	.	.
8d	-ed	.	.	.	.	.	.	.	.
8e	a	.	.	.	.	.	.	.	.
8d	job	.	.	.	.	.	.	.	.
=21	=21	=21	=21	=21	=21	=21	=21	=21	=21
8c	_	1r	.	1CM	.	voice	.	42.166	C:1(11)
4r	.	.	.	.	.	.	.	.	.
8r	.	.	.	.	.	.	.	.	.
2r	.	.	.	.	.	.	.	.	.
=22	=22	=22	=22	=22	=22	=22	=22	=22	=22
8r	.	1r	.	1Dm	newline	voice	.	44.202	D:1(11)
8d	I've	.	.	.	.	.	.	.	.
8d	al-	.	.	.	.	.	.	.	.
8d	-ways	.	.	.	.	.	.	.	.
8d	worked	.	.	.	.	.	.	.	.
8d	for	.	.	.	.	.	.	.	.
8e	my	.	.	.	.	.	.	.	.
8d	liv-	.	.	.	.	.	.	.	.
=23	=23	=23	=23	=23	=23	=23	=23	=23	=23
8c	-ing	1r	.	1CM	.	voice	a	46.219	C:1(11)
8r	.	.	.	.	.	.	.	.	.
4r	.	.	.	.	.	.	.	.	.
2r	.	.	.	.	.	.	.	.	.
=24	=24	=24	=24	=24	=24	=24	=24	=24	=24
*>Letter>C	*>Letter>C	*>Letter>C	*>Letter>C	*>Letter>C	*>Letter>C	*>Letter>C	*>Letter>C	*>Letter>C	*>Letter>C
*>Label>Refrain	*>Label>Refrain	*>Label>Refrain	*>Label>Refrain	*>Label>Refrain	*>Label>Refrain	*>Label>Refrain	*>Label>Refrain	*>Label>Refrain	*>Label>Refrain
8r	.	8r	.	1B-M	newline	voice	.	48.236	B-:5
8B-	How'm	8B-	How'm	.	.	.	.	.	.
4B-	I	4B-	I	.	.	.	.	.	.
4B-	gon-	4B-	gon-	.	.	.	.	.	.
8B-	-na	8B-	-na	.	.	.	.	.	.
[8B-	get	[8B-	get	.	.	.	.	.	.
=25	=25	=25	=25	=25	=25	=25	=25	=25	=25
8B-]	_	8B-]	_	1CM	.	voice	.	50.279	C:5
2c	through	2c	through	.	.	.	.	.	.
8r	.	8r	.	.	.	.	.	.	.
4r	.	4r	.	.	.	.	.	.	.
=26	=26	=26	=26	=26	=26	=26	=26	=26	=26
8r	.	8r	.	1B-M	.	voice	.	52.323	B-:maj
8B-	how'm	8d	how'm	.	.	.	.	.	.
4B-	I	4d	I	.	.	.	.	.	.
4B-	gon-	4d	gon-	.	.	.	.	.	.
8B-	-na	8d	-na	.	.	.	.	.	.
[8B-	get	[8d	get	.	.	.	.	.	.
=27	=27	=27	=27	=27	=27	=27	=27	=27	=27
8B-]	_	8d]	_	1CM	.	voice	.	54.366	C:maj
2c	through	2e	through	.	.	.	.	.	.
8r	.	8r	.	.	.	.	.	.	.
4r	.	4r	.	.	.	.	.	.	.
=28	=28	=28	=28	=28	=28	=28	=28	=28	=28
*>Letter>B	*>Letter>B	*>Letter>B	*>Letter>B	*>Letter>B	*>Letter>B	*>Letter>B	*>Letter>B	*>Letter>B	*>Letter>B
*>Label>Verse	*>Label>Verse	*>Label>Verse	*>Label>Verse	*>Label>Verse	*>Label>Verse	*>Label>Verse	*>Label>Verse	*>Label>Verse	*>Label>Verse
8r	.	1r	.	1Dm	newline	voice	.	56.41	D:1(11)
8d	I	.	.	.	.	.	.	.	.
8d	came	.	.	.	.	.	.	.	.
8d	here	.	.	.	.	.	.	.	.
8d	look-	.	.	.	.	.	.	.	.
8d	-ing	.	.	.	.	.	.	.	.
8e	for	.	.	.	.	.	.	.	.
8d	mon-	.	.	.	.	.	(A	.	.
=29	=29	=29	=29	=29	=29	=29	=29	=29	=29
8c	-ey	4r	.	1CM	.	voice	a)	58.45	C:1(11)
8r	.	.	.	.	.	.	.	.	.
4r	.	8r	.	.	.	.	.	.	.
.	.	4c	Got	.	.	.	.	.	.
2r	.	.	.	.	.	.	.	.	.
.	.	8c	to	.	.	.	.	.	.
.	.	8A	have	.	.	.	.	.	.
.	.	8G	it	.	.	.	.	.	.
=30	=30	=30	=30	=30	=30	=30	=30	=30	=30
8r	.	1r	.	1Dm	newline	voice	.	60.491	D:1(11)
8d	and	.	.	.	.	.	.	.	.
8d	end	.	.	.	.	.	.	.	.
8d	up	.	.	.	.	.	.	.	.
8d	liv-	.	.	.	.	.	.	.	.
8d	-ing	.	.	.	.	.	.	.	.
8e	with	.	.	.	.	.	.	.	.
8d	love	.	.	.	.	.	A	.	.
=31	=31	=31	=31	=31	=31	=31	=31	=31	=31
8c	_	2r	.	1CM	.	voice	.	62.534	C:1(11)
4r	.	.	.	.	.	.	.	.	.
8r	.	.	.	.	.	.	.	.	.
2r	.	8G	oh	.	.	.	.	.	.
.	.	8A	_	.	.	.	.	.	.
.	.	8c	oh	.	.	.	.	.	.
.	.	8A	_	.	.	.	.	.	.
=32	=32	=32	=32	=32	=32	=32	=32	=32	=32
4r	.	4r	.	1Dm	newline	voice	.	64.576	D:1(11)
8d	now	8d	now	.	.	.	.	.	.
8d	you	8d	you	.	.	.	.	.	.
8d	left	8d	left	.	.	.	.	.	.
8d	me	8d	me	.	.	.	.	.	.
8e	with	8e	with	.	.	.	.	.	.
8d	no-	8d	no-	.	.	.	(A	.	.
=33	=33	=33	=33	=33	=33	=33	=33	=33	=33
8c	-thing	8c	-thin	1CM	.	voice	a)	66.581	C:1(11)
8r	.	8r	.	.	.	.	.	.	.
4r	.	4r	.	.	.	.	.	.	.
2r	.	8r	.	.	.	.	.	.	.
.	.	8c	can't	.	.	.	.	.	.
.	.	8A	take	.	.	.	.	.	.
.	.	8G	it	.	.	.	.	.	.
=34	=34	=34	=34	=34	=34	=34	=34	=34	=34
*>Letter>C	*>Letter>C	*>Letter>C	*>Letter>C	*>Letter>C	*>Letter>C	*>Letter>C	*>Letter>C	*>Letter>C	*>Letter>C
*>Label>Refrain	*>Label>Refrain	*>Label>Refrain	*>Label>Refrain	*>Label>Refrain	*>Label>Refrain	*>Label>Refrain	*>Label>Refrain	*>Label>Refrain	*>Label>Refrain
8r	.	8r	.	1B-M	newline	voice	.	68.586	B-:maj
8B-	How'm	8B-	How'm	.	.	.	.	.	.
4B-	I	4B-	I	.	.	.	.	.	.
4B-	gon-	4B-	gon-	.	.	.	.	.	.
8B-	-na	8B-	-na	.	.	.	.	.	.
[8B-	get	[8B-	get	.	.	.	.	.	.
=35	=35	=35	=35	=35	=35	=35	=35	=35	=35
8B-]	_	8B-]	_	1CM	.	voice	.	70.632	C:maj
2c	through	2c	through	.	.	.	.	.	.
8r	.	8r	.	.	.	.	.	.	.
4r	.	4r	.	.	.	.	.	.	.
=36	=36	=36	=36	=36	=36	=36	=36	=36	=36
8r	.	8r	.	1B-M	.	voice	.	72.678	B-:maj
8B-	how'm	8d	how'm	.	.	.	.	.	.
4B-	I	4d	I	.	.	.	.	.	.
4B-	gon-	4d	gon-	.	.	.	.	.	.
8B-	-na	8d	-na	.	.	.	.	.	.
[8B-	get	[8d	get	.	.	.	.	.	.
=37	=37	=37	=37	=37	=37	=37	=37	=37	=37
8B-]	_	8d]	_	1CM	.	voice	.	74.724	C:maj
2c	through	2e	through	.	.	.	.	.	.
8r	.	8r	.	.	.	.	.	.	.
4r	.	4r	.	.	.	.	.	.	.
=38	=38	=38	=38	=38	=38	=38	=38	=38	=38
*>Letter>A	*>Letter>A	*>Letter>A	*>Letter>A	*>Letter>A	*>Letter>A	*>Letter>A	*>Letter>A	*>Letter>A	*>Letter>A
*>Label>Chorus	*>Label>Chorus	*>Label>Chorus	*>Label>Chorus	*>Label>Chorus	*>Label>Chorus	*>Label>Chorus	*>Label>Chorus	*>Label>Chorus	*>Label>Chorus
1r	.	1r	.	1FM	newline	voice	.	76.77	F:maj
=39	=39	=39	=39	=39	=39	=39	=39	=39	=39
1r	.	1r	.	2Em	.	voice	.	78.798	E:min
.	.	.	.	2Am	.	voice	.	79.812	A:min
=40	=40	=40	=40	=40	=40	=40	=40	=40	=40
1r	.	1r	.	1FM	newline	voice	.	80.826	F:maj
=41	=41	=41	=41	=41	=41	=41	=41	=41	=41
1r	.	1r	.	2Em	.	voice	.	82.842	E:min
.	.	.	.	2Am	.	voice	.	83.85	A:min
=42	=42	=42	=42	=42	=42	=42	=42	=42	=42
1r	.	1r	.	1FM	newline	voice	.	84.858	F:maj
=43	=43	=43	=43	=43	=43	=43	=43	=43	=43
1r	.	1r	.	2Em	.	voice	.	86.886	E:min
.	.	.	.	2Am	.	voice	.	87.9	A:min
=44	=44	=44	=44	=44	=44	=44	=44	=44	=44
1r	.	1r	.	1FM	newline	voice	.	88.915	F:maj
=45	=45	=45	=45	=45	=45	=45	=45	=45	=45
1r	.	1r	.	2Em	.	voice	.	90.968	E:min
.	.	.	.	2Am	.	voice	.	91.995	A:min
=46	=46	=46	=46	=46	=46	=46	=46	=46	=46
1r	.	1r	.	1N	newline	voice	.	93.021	N.C.
=47	=47	=47	=47	=47	=47	=47	=47	=47	=47
2r	.	1r	.	1N	.	voice	.	95.06	N.C.
8c	Since	.	.	.	.	.	.	.	.
8d	you	.	.	.	.	.	.	.	.
8e	went	.	.	.	.	.	.	.	.
8f	a-	.	.	.	.	.	.	.	.
=48	=48	=48	=48	=48	=48	=48	=48	=48	=48
*>Letter>D	*>Letter>D	*>Letter>D	*>Letter>D	*>Letter>D	*>Letter>D	*>Letter>D	*>Letter>D	*>Letter>D	*>Letter>D
*>Label>Bridge	*>Label>Bridge	*>Label>Bridge	*>Label>Bridge	*>Label>Bridge	*>Label>Bridge	*>Label>Bridge	*>Label>Bridge	*>Label>Bridge	*>Label>Bridge
[2g	-way	1r	.	1CM	newline	voice	.	97.1	C:maj
8g]	_	.	.	.	.	.	.	.	.
8a	I've	.	.	.	.	.	.	.	.
8e	been	.	.	.	.	.	.	.	.
8e	hang-	.	.	.	.	.	.	.	.
=49	=49	=49	=49	=49	=49	=49	=49	=49	=49
8f	_	1r	.	1Dm	.	voice	.	99.131	D:min
8f	-ing	.	.	.	.	.	.	.	.
8e	a-	.	.	.	.	.	.	.	.
8d	-round	.	.	.	.	.	B	.	.
4c	_	.	.	.	.	.	.	.	.
8d	I've	.	.	.	.	.	.	.	.
8e	been	.	.	.	.	.	.	.	.
=50	=50	=50	=50	=50	=50	=50	=50	=50	=50
8f	won-	1r	.	1Dm	.	voice	.	101.163	D:min
8g	-der-	.	.	.	.	.	.	.	.
8e	-ing	.	.	.	.	.	.	.	.
8d	why	.	.	.	.	.	.	.	.
4c	_	.	.	.	.	.	.	.	.
4r	.	.	.	.	.	.	.	.	.
=51	=51	=51	=51	=51	=51	=51	=51	=51	=51
8e	I'm	1r	.	1GM	.	voice	.	103.194	G:maj
8g	feel-	.	.	.	.	.	.	.	.
8e	-ing	.	.	.	.	.	.	.	.
8d	down	.	.	.	.	.	B	.	.
8c	_	.	.	.	.	.	.	.	.
8c	You	.	.	.	.	.	.	.	.
8e	went	.	.	.	.	.	.	.	.
8f	a-	.	.	.	.	.	.	.	.
=52	=52	=52	=52	=52	=52	=52	=52	=52	=52
[2g	-way	1r	.	1CM	newline	voice	.	105.226	C:maj
8g]	_	.	.	.	.	.	.	.	.
8e	it	.	.	.	.	.	.	.	.
8e	should	.	.	.	.	.	.	.	.
[8g	make	.	.	.	.	.	.	.	.
=53	=53	=53	=53	=53	=53	=53	=53	=53	=53
8g]	_	1r	.	1Dm	.	voice	.	107.256	D:min
8g	me	.	.	.	.	.	.	.	.
8a	feel	.	.	.	.	.	.	.	.
8g	bet-	.	.	.	.	.	.	.	.
4f	-ter	.	.	.	.	.	.	.	.
8r	.	.	.	.	.	.	.	.	.
8A	but	.	.	.	.	.	.	.	.
=54	=54	=54	=54	=54	=54	=54	=54	=54	=54
4f	I	1r	.	1Dm	.	voice	.	109.285	D:min
4e	don't	.	.	.	.	.	.	.	.
8d	know	.	.	.	.	.	.	.	.
8c	_	.	.	.	.	.	.	.	.
8c	oh	.	.	.	.	.	.	.	.
8B-	_	.	.	.	.	.	.	.	.
=55	=55	=55	=55	=55	=55	=55	=55	=55	=55
*>Letter>C	*>Letter>C	*>Letter>C	*>Letter>C	*>Letter>C	*>Letter>C	*>Letter>C	*>Letter>C	*>Letter>C	*>Letter>C
*>Label>Refrain	*>Label>Refrain	*>Label>Refrain	*>Label>Refrain	*>Label>Refrain	*>Label>Refrain	*>Label>Refrain	*>Label>Refrain	*>Label>Refrain	*>Label>Refrain
8r	.	8r	.	1B-M	->newline	voice	.	111.314	B-:maj
8d	How	8B-	How	.	.	.	.	.	.
4d	I'm	4B-	I'm	.	.	.	.	.	.
4d	gon-	4B-	gon-	.	.	.	.	.	.
8d	-na	8B-	-na	.	.	.	.	.	.
[8d	get	[8B-	get	.	.	.	.	.	.
=56	=56	=56	=56	=56	=56	=56	=56	=56	=56
8d]	_	8B-]	_	1CM	.	voice	.	113.352	C:maj
2e	through	2c	through	.	.	.	.	.	.
8r	.	8r	.	.	.	.	.	.	.
4r	.	4r	.	.	.	.	.	.	.
=57	=57	=57	=57	=57	=57	=57	=57	=57	=57
8r	.	8r	.	1B-M	.	voice	.	115.39	B-:maj
8f	how	8d	how	.	.	.	.	.	.
4f	I'm	4d	I'm	.	.	.	.	.	.
4f	gon-	4d	gon-	.	.	.	.	.	.
8f	-na	8d	-na	.	.	.	.	.	.
[8f	get	[8d	get	.	.	.	.	.	.
=58	=58	=58	=58	=58	=58	=58	=58	=58	=58
8f]	_	8d]	_	1CM	.	voice	.	117.428	C:maj
2g	through	2e	through	.	.	.	.	.	.
8r	.	8r	.	.	.	.	.	.	.
4r	.	4r	.	.	.	.	.	.	.
=59	=59	=59	=59	=59	=59	=59	=59	=59	=59
*>Letter>B	*>Letter>B	*>Letter>B	*>Letter>B	*>Letter>B	*>Letter>B	*>Letter>B	*>Letter>B	*>Letter>B	*>Letter>B
*>Label>Verse	*>Label>Verse	*>Label>Verse	*>Label>Verse	*>Label>Verse	*>Label>Verse	*>Label>Verse	*>Label>Verse	*>Label>Verse	*>Label>Verse
8r	.	8r	.	1CM	newline	voice	.	119.466	C:sus2
8d	You	2..r	.	.	.	.	.	.	.
8d	al-	.	.	.	.	.	.	.	.
8d	-ways	.	.	.	.	.	.	.	.
8d	want-	.	.	.	.	.	.	.	.
8d	-ed	.	.	.	.	.	.	.	.
8e	me	.	.	.	.	.	.	.	.
8d	to	.	.	.	.	.	.	.	.
=60	=60	=60	=60	=60	=60	=60	=60	=60	=60
4c	_	4r	.	1CM	.	voice	.	121.51	C:1(11)
4r	.	8c	be	.	.	.	.	.	.
.	.	8G	some-	.	.	.	.	.	.
2r	.	8G	-thing	.	.	.	.	.	.
.	.	8c	I	.	.	.	.	.	.
.	.	8A	was-	.	.	.	(A	.	.
.	.	8G	-n't	.	.	.	a)	.	.
=61	=61	=61	=61	=61	=61	=61	=61	=61	=61
8r	.	1r	.	1CM	newline	voice	.	123.554	C:sus2
8d	you	.	.	.	.	.	.	.	.
8d	al-	.	.	.	.	.	.	.	.
8d	-ways	.	.	.	.	.	.	.	.
8d	want-	.	.	.	.	.	.	.	.
8d	-ed	.	.	.	.	.	.	.	.
8e	too	.	.	.	.	.	.	.	.
8d	much	.	.	.	.	.	A	.	.
=62	=62	=62	=62	=62	=62	=62	=62	=62	=62
8c	_	2r	.	1CM	.	voice	.	125.606	C:1(11)
4r	.	.	.	.	.	.	.	.	.
8r	.	.	.	.	.	.	.	.	.
2r	.	8G	oh	.	.	.	.	.	.
.	.	8A	_	.	.	.	.	.	.
.	.	8c	oh	.	.	.	.	.	.
.	.	8A	_	.	.	.	.	.	.
=63	=63	=63	=63	=63	=63	=63	=63	=63	=63
8r	.	8r	.	1CM	newline	voice	.	127.658	C:sus2
8d	now	8d	now	.	.	.	.	.	.
8d	I	8d	I	.	.	.	.	.	.
8d	can	8d	can	.	.	.	.	.	.
8d	do	8d	do	.	.	.	.	.	.
8d	what	8d	what	.	.	.	.	.	.
8e	I	8e	I	.	.	.	.	.	.
8d	want	8d	want	.	.	.	.	.	.
=64	=64	=64	=64	=64	=64	=64	=64	=64	=64
8c	to	8c	_	1CM	.	voice	.	129.654	C:1(11)
8r	.	8r	.	.	.	.	.	.	.
4r	.	4r	.	.	.	.	.	.	.
8r	.	8r	.	.	.	.	.	.	.
8g	for-	8c	for-	.	.	.	.	.	.
8g	-e-	8A	-e-	.	.	.	.	.	.
8g	-ver	8G	-ver	.	.	.	.	.	.
=65	=65	=65	=65	=65	=65	=65	=65	=65	=65
*>Letter>C	*>Letter>C	*>Letter>C	*>Letter>C	*>Letter>C	*>Letter>C	*>Letter>C	*>Letter>C	*>Letter>C	*>Letter>C
*>Label>Refrain	*>Label>Refrain	*>Label>Refrain	*>Label>Refrain	*>Label>Refrain	*>Label>Refrain	*>Label>Refrain	*>Label>Refrain	*>Label>Refrain	*>Label>Refrain
8r	.	8r	.	1B-M	newline	voice	.	131.65	B-:5/2
8B-	How'm	8B-	How'm	.	.	.	.	.	.
4B-	I	4B-	I	.	.	.	.	.	.
4B-	gon-	4B-	gon-	.	.	.	.	.	.
8B-	-na	8B-	-na	.	.	.	.	.	.
[8B-	get	[8B-	get	.	.	.	.	.	.
=66	=66	=66	=66	=66	=66	=66	=66	=66	=66
8B-]	_	8B-]	_	1CM	.	voice	.	133.694	C:5
2c	through	2c	through	.	.	.	.	.	.
8r	.	8r	.	.	.	.	.	.	.
4r	.	4r	.	.	.	.	.	.	.
=67	=67	=67	=67	=67	=67	=67	=67	=67	=67
8r	.	8r	.	1B-M	.	voice	.	135.738	B-:maj/2
8B-	how'm	8d	how'm	.	.	.	.	.	.
4B-	I	4d	I	.	.	.	.	.	.
4B-	gon-	4d	gon-	.	.	.	.	.	.
8B-	-na	8d	-na	.	.	.	.	.	.
[8B-	get	[8d	get	.	.	.	.	.	.
=68	=68	=68	=68	=68	=68	=68	=68	=68	=68
*M2/4	*	*M2/4	*	*M2/4	*M2/4	*M2/4	*	*M2/4	*M2/4
8B-]	_	8d]	_	2CM	.	voice	.	137.782	C:maj
4.c	through	4e	through	.	.	.	.	.	.
.	.	8r	.	.	.	.	.	.	.
=69	=69	=69	=69	=69	=69	=69	=69	=69	=69
*>Letter>A	*>Letter>A	*>Letter>A	*>Letter>A	*>Letter>A	*>Letter>A	*>Letter>A	*>Letter>A	*>Letter>A	*>Letter>A
*>Label>Chorus	*>Label>Chorus	*>Label>Chorus	*>Label>Chorus	*>Label>Chorus	*>Label>Chorus	*>Label>Chorus	*>Label>Chorus	*>Label>Chorus	*>Label>Chorus
*	*	*	*	*M4/4	*M4/4	*M4/4	*	*M4/4	*M4/4
1r	.	1r	.	1FM	newline	voice	.	138.804	F:maj
=70	=70	=70	=70	=70	=70	=70	=70	=70	=70
1r	.	1r	.	2Em	.	voice	.	140.842	E:min
.	.	.	.	2Am	.	voice	.	141.861	A:min
=71	=71	=71	=71	=71	=71	=71	=71	=71	=71
1r	.	1r	.	1FM	newline	voice	.	142.881	F:maj
=72	=72	=72	=72	=72	=72	=72	=72	=72	=72
1r	.	1r	.	2Em	.	voice	.	144.894	E:min
.	.	.	.	2Am	.	voice	.	145.901	A:min
=73	=73	=73	=73	=73	=73	=73	=73	=73	=73
1r	.	1r	.	1FM	newline	voice	.	146.907	F:maj
=74	=74	=74	=74	=74	=74	=74	=74	=74	=74
1r	.	1r	.	2Em	.	voice	.	148.966	E:min
.	.	.	.	2Am	.	voice	.	149.996	A:min
=75	=75	=75	=75	=75	=75	=75	=75	=75	=75
1r	.	1r	.	1FM	newline	voice	.	151.025	F:maj
=76	=76	=76	=76	=76	=76	=76	=76	=76	=76
1r	.	1r	.	2Em	.	voice	.	153.063	E:min
.	.	.	.	2Am	.	voice	.	154.082	A:min
=77	=77	=77	=77	=77	=77	=77	=77	=77	=77
1r	.	1r	.	1N	newline	voice	.	155.1	N.C.
=78	=78	=78	=78	=78	=78	=78	=78	=78	=78
2r	.	1r	.	1N	.	voice	.	157.108	N.C.
8c	Since	.	.	.	.	.	.	.	.
8d	you	.	.	.	.	.	.	.	.
8e	went	.	.	.	.	.	.	.	.
8f	a-	.	.	.	.	.	.	.	.
=79	=79	=79	=79	=79	=79	=79	=79	=79	=79
*>Letter>D	*>Letter>D	*>Letter>D	*>Letter>D	*>Letter>D	*>Letter>D	*>Letter>D	*>Letter>D	*>Letter>D	*>Letter>D
*>Label>Bridge	*>Label>Bridge	*>Label>Bridge	*>Label>Bridge	*>Label>Bridge	*>Label>Bridge	*>Label>Bridge	*>Label>Bridge	*>Label>Bridge	*>Label>Bridge
8g	-way	1r	.	1CM	newline	voice	.	159.116	C:maj
4e	_	.	.	.	.	.	.	.	.
8g	I've	.	.	.	.	.	.	.	.
8a	_	.	.	.	.	.	.	.	.
4e	been	.	.	.	.	.	.	.	.
8e	hang-	.	.	.	.	.	.	.	.
=80	=80	=80	=80	=80	=80	=80	=80	=80	=80
8f	_	1r	.	1Dm	.	voice	.	161.142	D:min
8f	-ing	.	.	.	.	.	.	.	.
8e	a-	.	.	.	.	.	.	.	.
8d	-round	.	.	.	.	.	B	.	.
4c	_	.	.	.	.	.	.	.	.
8d	I've	.	.	.	.	.	.	.	.
8e	been	.	.	.	.	.	.	.	.
=81	=81	=81	=81	=81	=81	=81	=81	=81	=81
8f	wond-	1r	.	1Dm	.	voice	.	163.168	D:min
8g	-er-	.	.	.	.	.	.	.	.
8e	-ing	.	.	.	.	.	.	.	.
8d	why	.	.	.	.	.	.	.	.
4c	_	.	.	.	.	.	.	.	.
8r	.	.	.	.	.	.	.	.	.
[8cc	I'm	.	.	.	.	.	.	.	.
=82	=82	=82	=82	=82	=82	=82	=82	=82	=82
8cc]	_	1r	.	1GM	.	voice	.	165.193	G:maj
8cc	feel-	.	.	.	.	.	.	.	.
8cc	-ing	.	.	.	.	.	.	.	.
16b	down	.	.	.	.	.	B	.	.
16a	_	.	.	.	.	.	.	.	.
8g	_	.	.	.	.	.	.	.	.
8b-	You	.	.	.	.	.	.	.	.
8a	went	.	.	.	.	.	.	.	.
8g	a-	.	.	.	.	.	.	.	.
=83	=83	=83	=83	=83	=83	=83	=83	=83	=83
8g	-way	1r	.	1CM	newline	voice	.	167.219	C:maj
4.e	_	.	.	.	.	.	.	.	.
8r	.	.	.	.	.	.	.	.	.
8g	it	.	.	.	.	.	.	.	.
8a	should	.	.	.	.	.	.	.	.
[8cc	make	.	.	.	.	.	.	.	.
=84	=84	=84	=84	=84	=84	=84	=84	=84	=84
8cc]	_	1r	.	1Dm	.	voice	.	169.293	D:min
8dd	me	.	.	.	.	.	.	.	.
8ee	feel	.	.	.	.	.	.	.	.
4dd	bet-	.	.	.	.	.	.	.	.
4cc	-ter	.	.	.	.	.	.	.	.
8A	but	.	.	.	.	.	.	.	.
=85	=85	=85	=85	=85	=85	=85	=85	=85	=85
4f	I	1r	.	1Dm	.	voice	.	171.367	D:min
4e	don't	.	.	.	.	.	.	.	.
8d	know	.	.	.	.	.	.	.	.
8c	_	.	.	.	.	.	.	.	.
8c	oh	.	.	.	.	.	.	.	.
[8B-	_	.	.	.	.	.	.	.	.
=86	=86	=86	=86	=86	=86	=86	=86	=86	=86
*>Letter>C	*>Letter>C	*>Letter>C	*>Letter>C	*>Letter>C	*>Letter>C	*>Letter>C	*>Letter>C	*>Letter>C	*>Letter>C
*>Label>Refrain	*>Label>Refrain	*>Label>Refrain	*>Label>Refrain	*>Label>Refrain	*>Label>Refrain	*>Label>Refrain	*>Label>Refrain	*>Label>Refrain	*>Label>Refrain
8B-]	_	8r	.	1B-M	->newline	voice	.	173.442	B-:maj
8d	How	8B-	How	.	.	.	.	.	.
4d	I'm	4B-	I'm	.	.	.	.	.	.
4d	gon-	4B-	gon-	.	.	.	.	.	.
8d	-na	8B-	-na	.	.	.	.	.	.
[8d	get	[8B-	get	.	.	.	.	.	.
=87	=87	=87	=87	=87	=87	=87	=87	=87	=87
8d]	_	8B-]	_	1CM	.	voice	.	175.464	C:maj
2e	through	2c	through	.	.	.	.	.	.
8r	.	8r	.	.	.	.	.	.	.
4r	.	4r	.	.	.	.	.	.	.
=88	=88	=88	=88	=88	=88	=88	=88	=88	=88
8r	.	8r	.	1B-M	.	voice	.	177.487	B-:maj
8f	_	8d	how	.	.	.	.	.	.
4f	_	4d	I'm	.	.	.	.	.	.
4f	_	4d	gon-	.	.	.	.	.	.
8f	_	8d	-na	.	.	.	.	.	.
[8f	_	[8d	get	.	.	.	.	.	.
=89	=89	=89	=89	=89	=89	=89	=89	=89	=89
8f]	_	8d]	_	1CM	.	voice	.	179.509	C:maj
2g	_	2e	through	.	.	.	.	.	.
8r	.	8r	.	.	.	.	.	.	.
4r	.	4r	.	.	.	.	.	.	.
=90	=90	=90	=90	=90	=90	=90	=90	=90	=90
8r	.	8r	.	1B-M	newline	voice	.	181.532	B-:maj/2
8d	_	8B-	how	.	.	.	.	.	.
4d	_	4B-	I'm	.	.	.	.	.	.
4d	_	4B-	gon-	.	.	.	.	.	.
8d	_	8B-	-na	.	.	.	.	.	.
[8d	_	[8B-	get	.	.	.	.	.	.
=91	=91	=91	=91	=91	=91	=91	=91	=91	=91
8d]	_	8B-]	_	1CM	.	voice	.	183.55	C:maj
2e	_	2c	through	.	.	.	.	.	.
8r	.	8r	.	.	.	.	.	.	.
4r	.	4r	.	.	.	.	.	.	.
=92	=92	=92	=92	=92	=92	=92	=92	=92	=92
8r	.	8r	.	1B-M	.	voice	.	185.568	B-:maj/2
8f	how	8d	how	.	.	.	.	.	.
4f	I'm	4d	I'm	.	.	.	.	.	.
4f	gon-	4d	gon-	.	.	.	.	.	.
8f	-na	8d	-na	.	.	.	.	.	.
[8f	get	[8d	get	.	.	.	.	.	.
=93	=93	=93	=93	=93	=93	=93	=93	=93	=93
8f]	_	8d]	_	1CM	.	voice	.	187.586	C:maj
2g	through	2e	through	.	.	.	.	.	.
8r	.	8r	.	.	.	.	.	.	.
4r	.	4r	.	.	.	.	.	.	.
=94	=94	=94	=94	=94	=94	=94	=94	=94	=94
8r	.	8r	.	1B-M	newline	voice	.	189.604	B-:maj/2
8d	how	8B-	how	.	.	.	.	.	.
4d	I'm	4B-	I'm	.	.	.	.	.	.
4d	gon-	4B-	gon-	.	.	.	.	.	.
8d	-na	8B-	-na	.	.	.	.	.	.
[8d	get	[8B-	get	.	.	.	.	.	.
=95	=95	=95	=95	=95	=95	=95	=95	=95	=95
8d]	_	8B-]	_	1CM	.	voice	.	191.65	C:maj
2e	through	2c	through	.	.	.	.	.	.
8r	.	8r	.	.	.	.	.	.	.
4r	.	4r	.	.	.	.	.	.	.
=96	=96	=96	=96	=96	=96	=96	=96	=96	=96
8r	.	8r	.	1B-M	.	voice	.	193.696	B-:maj/2
8f	how	8d	how	.	.	.	.	.	.
4f	I'm	4d	I'm	.	.	.	.	.	.
4f	gon-	4d	gon-	.	.	.	.	.	.
8f	-na	8d	-na	.	.	.	.	.	.
[8f	get	[8d	get	.	.	.	.	.	.
=97	=97	=97	=97	=97	=97	=97	=97	=97	=97
8f]	_	8d]	_	1CM	.	voice	.	195.742	C:maj
2g	through	2e	through	.	.	.	.	.	.
8r	.	8r	.	.	.	.	.	.	.
4r	.	4r	.	.	.	.	.	.	.
=98	=98	=98	=98	=98	=98	=98	=98	=98	=98
*>Letter>A	*>Letter>A	*>Letter>A	*>Letter>A	*>Letter>A	*>Letter>A	*>Letter>A	*>Letter>A	*>Letter>A	*>Letter>A
*>Label>Outro	*>Label>Outro	*>Label>Outro	*>Label>Outro	*>Label>Outro	*>Label>Outro	*>Label>Outro	*>Label>Outro	*>Label>Outro	*>Label>Outro
1r	.	1r	.	1FM	newline	voice	.	197.788	F:maj
=99	=99	=99	=99	=99	=99	=99	=99	=99	=99
1r	.	1r	.	2Em	.	voice	.	199.776	E:min
.	.	.	.	2Am	.	voice	.	200.769	A:min
=100	=100	=100	=100	=100	=100	=100	=100	=100	=100
1r	.	1r	.	1FM	newline	voice	.	201.763	F:maj
=101	=101	=101	=101	=101	=101	=101	=101	=101	=101
1r	.	1r	.	2Em	.	voice	.	203.84	E:min
.	.	.	.	2Am	.	voice	.	204.878	A:min
=102	=102	=102	=102	=102	=102	=102	=102	=102	=102
1r	.	1r	.	1FM	newline	voice	.	205.916	F:maj
=103	=103	=103	=103	=103	=103	=103	=103	=103	=103
1r	.	1r	.	2Em	.	voice	.	207.98	E:min
.	.	.	.	2Am	.	voice	.	209.011	A:min
=104	=104	=104	=104	=104	=104	=104	=104	=104	=104
1r	.	1r	.	1FM	newline	voice	.	210.043	F:maj
=105	=105	=105	=105	=105	=105	=105	=105	=105	=105
1r	.	1r	.	2Em	.	voice	.	212.055	E:min
.	.	.	.	2Am	.	voice	.	213.061	A:min
=106	=106	=106	=106	=106	=106	=106	=106	=106	=106
1r	.	1r	.	1FM	newline	voice	.	214.067	F:maj
=107	=107	=107	=107	=107	=107	=107	=107	=107	=107
1r	.	1r	.	2Em	.	voice	.	216.098	E:min
.	.	.	.	2Am	.	voice	.	217.113	A:min
=108	=108	=108	=108	=108	=108	=108	=108	=108	=108
1r	.	1r	.	1FM	newline	voice	.	218.128	F:maj
=109	=109	=109	=109	=109	=109	=109	=109	=109	=109
1r	.	1r	.	2Em	.	voice	.	220.15	E:min
.	.	.	.	2Am	.	voice	.	221.161	A:min
=110	=110	=110	=110	=110	=110	=110	=110	=110	=110
1r	.	1r	.	1FM	newline	voice	.	222.172	F:maj
=111	=111	=111	=111	=111	=111	=111	=111	=111	=111
1r	.	1r	.	2Em	.	voice	.	224.2	E:min
.	.	.	.	2Am	.	voice	.	225.214	A:min
=112	=112	=112	=112	=112	=112	=112	=112	=112	=112
1r	.	1r	.	1FM	newline	voice	.	226.228	F:maj
=113	=113	=113	=113	=113	=113	=113	=113	=113	=113
1r	.	1r	.	2Em	.	voice	.	228.296	E:min
.	.	.	.	2Am	.	voice	.	229.33	A:min
=114	=114	=114	=114	=114	=114	=114	=114	=114	=114
1r	.	1r	.	1FM	newline	voice	.	230.364	F:maj
=115	=115	=115	=115	=115	=115	=115	=115	=115	=115
1r	.	1r	.	2Em	.	voice	.	232.356	E:min
.	.	.	.	2Am	.	voice	.	233.352	A:min
=116	=116	=116	=116	=116	=116	=116	=116	=116	=116
1r	.	1r	.	1FM	newline	voice	.	234.348	F:maj
=117	=117	=117	=117	=117	=117	=117	=117	=117	=117
1r	.	1r	.	2Em	.	voice	.	236.404	E:min
.	.	.	.	2Am	.	voice	.	237.432	A:min
=118	=118	=118	=118	=118	=118	=118	=118	=118	=118
1r	.	1r	.	1FM	newline	voice	.	238.46	F:maj
=119	=119	=119	=119	=119	=119	=119	=119	=119	=119
1r	.	1r	.	2Em	.	voice	.	240.484	E:min
.	.	.	.	2Am	.	voice	.	241.496	A:min
=120	=120	=120	=120	=120	=120	=120	=120	=120	=120
*>Label>>Fadeout	*>Label>>Fadeout	*>Label>>Fadeout	*>Label>>Fadeout	*>Label>>Fadeout	*>Label>>Fadeout	*>Label>>Fadeout	*>Label>>Fadeout	*>Label>>Fadeout	*>Label>>Fadeout
1r	.	1r	.	1FM	newline	voice	.	242.507	F:maj
=121	=121	=121	=121	=121	=121	=121	=121	=121	=121
1r	.	1r	.	2Em	.	voice	.	244.547	E:min
.	.	.	.	2Am	.	voice	.	245.566	A:min
r;	.	r;	.	1r;	.	r	.	256.781	N.C.
r;	.	r;	.	1r;	.	r	.	259.952	N.C.
*-	*-	*-	*-	*-	*-	*-	*-	*-	*-
!!!BillboardChartDate: 1988/02/20
!!!BillboardPeak: 2
!!!BillboardWeeksOnChart: 12
!!!COC: Pet Shop Boys
!!!ENC: Nathaniel Condit-Schultz
!!!EST: Awating manual error checking and editing.
!!!OTL: What Have I Done To Deserve This?
!!!RDF**chordsym: original McGill chord annotation + (implied pitch class set, with bass pitch in first position)
!!!RDF**harmony: **recip + pitch class of root + harmonic quality
!!!RDF**leadinstrument: original McGill primary instrumentation annotation
!!!RDF**phrase: newline = linebreak in original McGill transcription
!!!RDF**timestamp: McGill audio timestamp in seconds
!!!RDT: 2017/01/12/
!!!SampleActualRank: 2
!!!SampleID#: 0648
!!!SampleTargetRank: 3
